Sources/FrostedUI/Resources/Icons.xcassets/paperAirplaneFilledUp12.imageset/paper-airplane-filled-up-12.svg

<svg width="12" height="12" viewBox="0 0 12 12" fill="none" xmlns="http://www.w3.org/2000/svg" data-fui-icon="true">
  <path
    d="M5.531 0.286217L0.0535968 11.2686C-0.144552 11.6671 0.239165 12.1072 0.673205 11.9764L5.0199 10.4653C5.22277 10.4038 5.36745 10.2284 5.38475 10.0206L6.00121 4.85644L6.61767 10.0206C6.63497 10.2284 6.77965 10.4038 6.98252 10.4653L11.3276 11.9764C11.7617 12.1072 12.1454 11.6687 11.9457 11.2686L6.46828 0.284678C6.36763 0.0830965 6.22452 0 5.99964 0C5.77475 0 5.63165 0.0815573 5.531 0.284678V0.286217Z"
    fill="currentColor"
  />
</svg>

<svg xmlns="http://www.w3.org/2000/svg" width="12" height="12" fill="none" data-fui-icon="true" viewBox="0 0 12 12"><path fill="currentColor" d="M5.531.286.054 11.27c-.199.398.185.838.62.707l4.346-1.51a.51.51 0 0 0 .365-.445L6 4.856l.617 5.165a.51.51 0 0 0 .365.444l4.345 1.511c.434.131.817-.307.618-.707L6.468.285C6.368.083 6.225 0 6 0s-.368.082-.469.285z"/></svg>
